assets/img/braze_icons/folder-question.svg

<svg fill="none" height="24" viewBox="0 0 24 24" width="24" xmlns="http://www.w3.org/2000/svg"><path clip-rule="evenodd" d="m1 6.16167v10.07963c-.000011.805-.00002 1.4693.0442 2.0105.04592.5621.14449 1.0788.39178 1.5642.38349.7526.99541 1.3645 1.74806 1.748.48534.2473 1.00204.3459 1.56414.3918.54119.0442 1.20556.0442 2.01052.0442h10.4826c.805 0 1.4693 0 2.0105-.0442.5621-.0459 1.0788-.1445 1.5642-.3918.7526-.3835 1.3645-.9954 1.748-1.748.2473-.4854.3459-1.0021.3918-1.5642.0442-.5412.0442-1.2055.0442-2.0105v-4.4826c0-.805 0-1.4693-.0442-2.01053-.0459-.56209-.1445-1.0788-.3918-1.56413-.3835-.75265-.9954-1.36457-1.748-1.74806-.4854-.2473-1.0021-.34586-1.5642-.39179-.5412-.04421-1.2055-.0442-2.0105-.04419h-3.6234l-.8945-1.78936c-.2648-.53125-.4976-.99843-.8603-1.35368-.3177-.31115-.7006-.54778-1.121-.69278-.4799-.16555-1.00188-.16486-1.59544-.16407l-3.9852.0001c-.52715-.00001-.98191-.00003-1.35648.03057-.39535.03231-.78857.10362-1.16695.29642-.56448.28762-1.02343.74656-1.31105 1.31104-.19279.37838-.26411.7716-.29641 1.16695-.030599.37455-.030585.82937-.03057 1.35648zm9.09-2.1068c-.12062-.04161-.27729-.05465-1.06771-.05465h-3.82229c-.57655 0-.94882.00077-1.23216.02392-.27166.0222-.37238.05988-.42183.08507-.18816.09587-.34114.24885-.43701.43701-.0252.04945-.06287.15017-.08507.42183-.02035.24911-.02341.56696-.02385 1.03195h8.38182l-.3919-.78365c-.3534-.70697-.4352-.84127-.5263-.93055-.1059-.10372-.2336-.1826-.3737-.23093zm1.2485 7.36723c.2542-.1494.553-.204.8436-.1541.2905.0498.5541.2009.7439.4264.1899.2255.2938.511.2934.8058v.0015c0 .2186-.1772.5197-.6789.8542-.2204.1469-.4479.2614-.6243.3398-.0868.0385-.1577.0668-.2045.0847-.0234.0089-.0405.0151-.0504.0186l-.0089.0031c-.5223.1757-.8044.7411-.63 1.2641.1746.524.7409.8071 1.2649.6325l.1363-.0493c.0761-.029.1809-.071.3049-.1261.2452-.109.5797-.2755.9214-.5033.6224-.415 1.5693-1.2378 1.5695-2.5179.0009-.7667-.2695-1.5091-.7633-2.0957-.494-.58686-1.1798-.97995-1.9359-1.10964s-1.5337.0124-2.195.40108c-.66138.38866-1.16384.99886-1.41841 1.72256-.18327.521.0905 1.0919.61149 1.2752.52102.1832 1.09192-.0905 1.27522-.6115.0978-.2781.2909-.5126.545-.662zm.6615 5.3279c-.5523 0-1 .4477-1 1s.4477 1 1 1h.01c.5523 0 1-.4477 1-1s-.4477-1-1-1z" fill="#801ed7" fill-rule="evenodd"/></svg>

<svg width="24" height="24" viewBox="0 0 24 24" fill="none" xmlns="http://www.w3.org/2000/svg">
<path fill-rule="evenodd" clip-rule="evenodd" d="M1 6.16167V16.2413C0.999989 17.0463 0.99998 17.7106 1.0442 18.2518C1.09012 18.8139 1.18869 19.3306 1.43598 19.816C1.81947 20.5686 2.43139 21.1805 3.18404 21.564C3.66938 21.8113 4.18608 21.9099 4.74818 21.9558C5.28937 22 5.95374 22 6.7587 22H17.2413C18.0463 22 18.7106 22 19.2518 21.9558C19.8139 21.9099 20.3306 21.8113 20.816 21.564C21.5686 21.1805 22.1805 20.5686 22.564 19.816C22.8113 19.3306 22.9099 18.8139 22.9558 18.2518C23 17.7106 23 17.0463 23 16.2413V11.7587C23 10.9537 23 10.2894 22.9558 9.74817C22.9099 9.18608 22.8113 8.66937 22.564 8.18404C22.1805 7.43139 21.5686 6.81947 20.816 6.43598C20.3306 6.18868 19.8139 6.09012 19.2518 6.04419C18.7106 5.99998 18.0463 5.99999 17.2413 6H13.6179L12.7234 4.21064C12.4586 3.67939 12.2258 3.21221 11.8631 2.85696C11.5454 2.54581 11.1625 2.30918 10.7421 2.16418C10.2622 1.99863 9.74022 1.99932 9.14666 2.00011L5.16146 2.00021C4.63431 2.0002 4.17955 2.00018 3.80498 2.03078C3.40963 2.06309 3.01641 2.1344 2.63803 2.3272C2.07355 2.61482 1.6146 3.07376 1.32698 3.63824C1.13419 4.01662 1.06287 4.40984 1.03057 4.80519C0.999971 5.17974 0.999985 5.63456 1 6.16167ZM10.09 4.05487C9.96938 4.01326 9.81271 4.00022 9.02229 4.00022H5.2C4.62345 4.00022 4.25118 4.00099 3.96784 4.02414C3.69618 4.04634 3.59546 4.08402 3.54601 4.10921C3.35785 4.20508 3.20487 4.35806 3.109 4.54622C3.0838 4.59567 3.04613 4.69639 3.02393 4.96805C3.00358 5.21716 3.00052 5.53501 3.00008 6L11.3819 6L10.99 5.21635C10.6366 4.50938 10.5548 4.37508 10.4637 4.2858C10.3578 4.18208 10.2301 4.1032 10.09 4.05487ZM11.3385 11.4221C11.5927 11.2727 11.8915 11.2181 12.1821 11.268C12.4726 11.3178 12.7362 11.4689 12.926 11.6944C13.1159 11.9199 13.2198 12.2054 13.2194 12.5002L13.2194 12.5017C13.2194 12.7203 13.0422 13.0214 12.5405 13.3559C12.3201 13.5028 12.0926 13.6173 11.9162 13.6957C11.8294 13.7342 11.7585 13.7625 11.7117 13.7804C11.6883 13.7893 11.6712 13.7955 11.6613 13.799L11.6524 13.8021C11.1301 13.9778 10.848 14.5432 11.0224 15.0662C11.197 15.5902 11.7633 15.8733 12.2873 15.6987L12.4236 15.6494C12.4997 15.6204 12.6045 15.5784 12.7285 15.5233C12.9737 15.4143 13.3082 15.2478 13.6499 15.02C14.2723 14.605 15.2192 13.7822 15.2194 12.5021C15.2203 11.7354 14.9499 10.993 14.4561 10.4064C13.9621 9.81954 13.2763 9.42645 12.5202 9.29676C11.7641 9.16707 10.9865 9.30916 10.3252 9.69784C9.66382 10.0865 9.16136 10.6967 8.90679 11.4204C8.72352 11.9414 8.99729 12.5123 9.51828 12.6956C10.0393 12.8788 10.6102 12.6051 10.7935 12.0841C10.8913 11.806 11.0844 11.5715 11.3385 11.4221ZM12 16.75C11.4477 16.75 11 17.1977 11 17.75C11 18.3023 11.4477 18.75 12 18.75H12.01C12.5623 18.75 13.01 18.3023 13.01 17.75C13.01 17.1977 12.5623 16.75 12.01 16.75H12Z" fill="#801ED7"/>
</svg>
